X:1
T:Title
%%score ( 1 2 ) { ( 3 5 ) | 4 }
L:1/8
Q:1/4=110
M:4/4
K:A
V:1 treble nm="Grand Piano, Staff"
V:2 treble 
V:3 bass nm="Choir Pad, St. James, CM"
V:5 bass 
V:4 bass 
V:1
 [CE]2 [EA]2 [EB]2 [Ec]2 | [EA]2 [FB]2 [Ed]2 [Ec]2 | [Ec]2 [^DF]2 [EG]2 [EA]2 | [^DF]2 E6 | %4
w: By~Raph~Courteville,~1696 * * *||||
 [EB]2 [Ec]2 [EA]2 [Dd]2 | [Ec]2 [DF]2 [FB]2 [EG]2 | E2 E-[EA] [Ac]2 [Ad]2 | [GB]2 [CA]6- | %8
w: ||||
 [CA]2 z2 z4 |] %9
w: |
V:2
 x8 | x8 | x8 | x8 | x8 | x8 | z2 .G2 z4 | x8 | x8 |] %9
V:3
 A,2 A,2 G,2 A,2 | A,2 A,2 G,2 A,2 | C2 z A, B,2 A,2 | B,2 G,6 | G,2 A,2 A,2 F,G, | %5
 A,2 A,2 D2 B,2 | G,2 A,2[K:treble] E2 D2 | D2 A,6- | A,2 z2 z4 |] %9
V:4
 A,,2 C,2 E,2 z2 | C,2 D,2 E,2 A,,2 | A,2 z2 G,2 F,2 | B,,2 E,6 | E,2 A,,2 C,2 B,,2 | %5
 A,,2 D,2 B,,2 E,2 | E,D,D,C, A,,2 B,,2 | E,2 A,,6- | A,,2 z2 z4 |] %9
V:5
 x8 | x8 | z2 B,2 z4 | x8 | x8 | x8 | x4[K:treble] x4 | x8 | x8 |] %9

